static/assets/images/networks/xrpl-mono.svg

<svg width="340" height="256" viewBox="0 0 340 256" fill="none" xmlns="http://www.w3.org/2000/svg">
<path d="M78.2 0.0141507C71.6412 0.00856449 65.1457 1.29507 59.0853 3.80003C53.0248 6.30498 47.5185 9.97921 42.8814 14.6124C38.2443 19.2456 34.5675 24.7468 32.0614 30.8011C29.5553 36.8554 28.2692 43.3439 28.2767 49.8953V86.0928C28.2862 93.7518 25.3626 101.124 20.1051 106.7C14.8477 112.275 7.65455 115.63 0 116.078L0.424999 124.031L0 131.969C7.65944 132.418 14.8567 135.777 20.1149 141.358C25.3731 146.939 28.2934 154.319 28.2767 161.983V203.699C28.2541 217.538 33.7322 230.82 43.5075 240.626C53.2828 250.433 66.5556 255.963 80.41 256V240.109C70.8038 240.098 61.5944 236.28 54.8031 229.494C48.0117 222.707 44.1933 213.507 44.1858 203.911V161.983C44.1905 154.497 42.3594 147.124 38.8526 140.508C35.3458 133.892 30.2701 128.235 24.0692 124.031C30.2518 119.808 35.3137 114.147 38.8182 107.535C42.3228 100.924 44.1649 93.5598 44.1858 86.0786V49.8953C44.2231 40.8945 47.8182 32.2728 54.1887 25.9069C60.5591 19.541 69.1891 15.9463 78.2 15.9054H84.3908V0.0141507H78.2ZM255.822 0.0141507V15.9054H262.012C266.467 15.9128 270.877 16.7982 274.988 18.5109C279.1 20.2235 282.832 22.7298 285.973 25.8861C289.113 29.0423 291.598 32.7865 293.287 36.904C294.976 41.0216 295.835 45.4315 295.814 49.8812V86.0786C295.835 93.5598 297.677 100.924 301.182 107.535C304.686 114.147 309.748 119.808 315.931 124.031C309.73 128.235 304.654 133.892 301.147 140.508C297.641 147.124 295.81 154.497 295.814 161.983V203.911C295.807 213.507 291.988 222.707 285.197 229.494C278.406 236.28 269.196 240.098 259.59 240.109V256C273.444 255.963 286.717 250.433 296.492 240.626C306.268 230.82 311.746 217.538 311.723 203.699V161.969C311.714 154.31 314.637 146.937 319.895 141.362C325.152 135.787 332.345 132.431 340 131.983L339.575 124.031L340 116.092C332.343 115.644 325.148 112.287 319.89 106.709C314.632 101.13 311.71 93.7542 311.723 86.0928V49.867C311.746 36.6713 306.523 24.0065 297.201 14.6558C287.88 5.30517 275.223 0.033739 262.012 0L255.822 0.0141507ZM88.5842 64.0177L137.856 110.135C146.694 118.123 158.187 122.546 170.106 122.546C182.025 122.546 193.519 118.123 202.357 110.135L251.628 64.0035H227.984L190.442 98.8708C184.867 103.987 177.571 106.826 170 106.826C162.429 106.826 155.133 103.987 149.557 98.8708L112.228 64.0177H88.5842ZM168.002 133.13C156.788 133.627 146.11 138.068 137.856 145.667L88.3717 191.996H112.002L149.784 156.691C155.359 151.578 162.652 148.742 170.22 148.742C177.788 148.742 185.08 151.578 190.655 156.691L228.197 191.996H251.855L202.357 145.667C197.741 141.418 192.329 138.123 186.433 135.971C180.537 133.819 174.274 132.854 168.002 133.13Z" fill="black"/>
</svg>

<svg xmlns="http://www.w3.org/2000/svg" fill="none" viewBox="0 0 340 256"><path fill="#000" d="M78.2.014A49.9 49.9 0 0 0 59.085 3.8a49.9 49.9 0 0 0-16.204 10.812 49.8 49.8 0 0 0-10.82 16.19 49.8 49.8 0 0 0-3.784 19.093v36.198a29.98 29.98 0 0 1-8.172 20.607A30.05 30.05 0 0 1 0 116.078l.425 7.953L0 131.969a30.05 30.05 0 0 1 20.115 9.389 29.98 29.98 0 0 1 8.162 20.625v41.716a52.18 52.18 0 0 0 15.23 36.927A52.3 52.3 0 0 0 80.41 256v-15.891a36.3 36.3 0 0 1-25.607-10.615 36.2 36.2 0 0 1-10.617-25.583v-41.928a45.8 45.8 0 0 0-5.333-21.475 45.85 45.85 0 0 0-14.784-16.477 46.15 46.15 0 0 0 14.75-16.496 46.1 46.1 0 0 0 5.367-21.456V49.895a34.1 34.1 0 0 1 10.003-23.988c6.37-6.366 15-9.96 24.011-10.002h6.19V.015zm177.622 0v15.891h6.19a33.9 33.9 0 0 1 23.961 9.981 33.8 33.8 0 0 1 7.314 11.018 33.8 33.8 0 0 1 2.527 12.977V86.08a46.1 46.1 0 0 0 5.368 21.456 46.14 46.14 0 0 0 14.749 16.496 45.81 45.81 0 0 0-20.117 37.952v41.928a36.2 36.2 0 0 1-10.617 25.583 36.3 36.3 0 0 1-25.607 10.615V256a52.3 52.3 0 0 0 36.902-15.374 52.18 52.18 0 0 0 15.231-36.927v-41.73a29.98 29.98 0 0 1 8.172-20.607A30.05 30.05 0 0 1 340 131.983l-.425-7.952.425-7.939a30.05 30.05 0 0 1-20.11-9.383 29.98 29.98 0 0 1-8.167-20.616V49.867a49.75 49.75 0 0 0-14.522-35.211A49.87 49.87 0 0 0 262.012 0zM88.584 64.018l49.272 46.117a48.1 48.1 0 0 0 32.25 12.411 48.1 48.1 0 0 0 32.251-12.411l49.271-46.131h-23.644L190.442 98.87a30.24 30.24 0 0 1-40.885 0l-37.329-34.853zm79.418 69.112a47.62 47.62 0 0 0-30.146 12.537l-49.484 46.329h23.63l37.782-35.305a30.24 30.24 0 0 1 20.436-7.949c7.568 0 14.86 2.836 20.435 7.949l37.542 35.305h23.658l-49.498-46.329a47.62 47.62 0 0 0-34.355-12.537"/></svg>
